!!!OTL: Am Weihnachtsabend
!!!ARE: Europa, Mitteleuropa, Deutschland
!!!SCT: A0533
!!!YEM: Copyright 1995, estate of Helmut Schaffrath.
**kern
*ICvox
*Ivox
!! Mixed meters:  4/1; 2/1
*M4/1
*k[b-e-]
*g:
{2g
=1
1g
1dd
1dd
1dd
=2
1cc
1b-
1a
2r}
{2cc
=3
1cc
1cc
1cc
1cc
=4
2b-
2dd
2cc
2b-
1a
2r}
{2dd
=5
1dd
2dd
1cc
2b-
1a
=6
*M2/1
1g
2r}
{2g
=7
*M4/1
1a
1b-
1cc
1cc
=8
2b-
2dd
2cc
2b-
1a
2r}
{2dd
=9
1dd
2dd
1cc
2b-
1a
=10
1g
2r}
==
!!!AGN: Romanze, Ballade, Lied, religioeses Lied
!! Speiersches Gsgb 1617. fol 17b.
!!!ONB: ESAC (Essen Associative Code) Database: ALTDEU
!!!AMT: irregular
!!!AIN: vox
!!!EED: Helmut Schaffrath
!!!EEV: 1.0
*-
